static/assets/items/spore-pod.svg

<svg xmlns="http://www.w3.org/2000/svg" viewBox="0 0 32 32"><path d="M0 .5V0h32v32H0V.5M16.5 28q.5 0 .875-.125T18 27.5l.5-.5.5-.5.5-.5.5-.5q.25-.25.625-.375T21.5 25t.875-.125q.375-.125.625-.375l.5-.5.5-.5.5-.5.5-.5.5-.5.5-.5.5-.5.5-.5.5-.5q.25-.25.375-.625T28 18.5v-1-1-2-1-1q0-.5-.125-.875T27.5 11l-.5-.5q-.25-.25-.625-.375t-.5-.5Q25.75 9.25 25.5 9l-.5-.5-.5-.5-.5-.5-.5-.5-.5-.5-.5-.5-.5-.5-.5-.5-.5-.5q-.25-.25-.625-.375T19.5 4h-6q-.5 0-.875.125T12 4.5l-.5.5-.5.5-.5.5-.5.5-.5.5-.5.5-.5.5q-.25.25-.375.625T8 9.5v6q0 .5-.125.875T7.5 17l-.5.5-.5.5-.5.5-.5.5-.5.5-.5.5q-.25.25-.375.625T4 21.5v5q0 .5.125.875t.5.5Q5 28 5.5 28h11" fill="none"/><path d="M12 4.5q.25-.25.625-.375T13.5 4h6q.5 0 .875.125T21 4.5l.5.5.5.5.5.5.5.5.5.5.5.5.5.5.5.5.5.5q.25.25.375.625L26 10l-.0938-.2813-.0937-.2812.0625.1875q.0625.1875.1875.3125l.125.125L26.125 10l-.0625-.0625-.4063.1563Q25.25 10.25 25 10.5l-.5.5-.5.5-.5.5-.5.5-.5.5-.5.5-.5.5-.5.5-.5.5-.5.5-.5.5-.5.5-.5.5-.5.5-.5.5-.5.5-.5.5-.5.5-.5.5-.5.5-.5.5-.5.5-.5.5-.5.5q-.25.25-.625.375T11.5 23h-1q-.5 0-.875.125T9 23.5l-.5.5-.5.5-.5.5-.5.5q-.25.25-.625.375T5.5 26H4v-.5-1-1-1-1q0-.5.125-.875T4.5 20l.5-.5.5-.5.5-.5.5-.5.5-.5.5-.5q.25-.25.375-.625T8 15.5v-1-1-1-1-1-1q0-.5.125-.875T8.5 8l.5-.5.5-.5.5-.5.5-.5.5-.5.5-.5.5-.5M4 25.625v.625V26v-.75.375m9.625-9.75q.375.125.75 0T15 15.5l.5-.5.5-.5.5-.5.5-.5.5-.5.5-.5.5-.5.5-.5.5-.5q.25-.25.375-.625t0-.75Q19.75 9.25 19.5 9l-.5-.5q-.25-.25-.625-.375t-.75 0Q17.25 8.25 17 8.5l-.5.5-.5.5-.5.5-.5.5-.5.5-.5.5-.5.5-.5.5-.5.5q-.25.25-.375.625t0 .75q.125.375.375.625l.5.5q.25.25.625.375" fill="#9e78dc"/><path d="M17 8.5q.25-.25.625-.375t.75 0q.375.125.625.375l.5.5q.25.25.375.625t0 .75q-.125.375-.375.625l-.5.5-.5.5-.5.5-.5.5-.5.5-.5.5-.5.5-.5.5-.5.5q-.25.25-.625.375t-.75 0Q13.25 15.75 13 15.5l-.5-.5q-.25-.25-.375-.625t0-.75q.125-.375.375-.625l.5-.5.5-.5.5-.5.5-.5.5-.5.5-.5.5-.5.5-.5.5-.5M25 10.5q.25-.25.6563-.4063l.4062-.1562L26 9.875l-.0625-.0625.125.125q.125.125.3125.1875l.1875.0625-.2813-.0938L26 10l.375.125q.375.125.625.375l.5.5q.25.25.375.625T28 12.5V15h-.5q-.5 0-.5.5t-.5.5-.5.5-.5.5-.5.5-.5.5-.5.5-.5.5-.5.5-.5.5-.5.5-.5.5-.5.5-.5.5h-2q-.5 0-.5.5t-.5.5-.5.5-.5.5-.5.5-.5.5h-5q-.5 0-.5.5t-.5.5-.5.5-.5.5-.5.5v.5H5.5q-.5 0-.875-.125t-.5-.5Q4 27 4 26.5V26h1.5q.5 0 .875-.125T7 25.5l.5-.5.5-.5.5-.5.5-.5q.25-.25.625-.375T10.5 23h1q.5 0 .875-.125T13 22.5l.5-.5.5-.5.5-.5.5-.5.5-.5.5-.5.5-.5.5-.5.5-.5.5-.5.5-.5.5-.5.5-.5.5-.5.5-.5.5-.5.5-.5.5-.5.5-.5.5-.5.5-.5.5-.5.5-.5.5-.5M4 25.875v.875-.25-.75.125" fill="#7457ce"/><path d="M27 15.5q0-.5.5-.5h.5v3.5q0 .5-.125.875T27.5 20l-.5.5-.5.5-.5.5-.5.5-.5.5-.5.5-.5.5-.5.5-.5.5q-.25.25-.625.375T21.5 25t-.875.125q-.375.125-.625.375l-.5.5-.5.5-.5.5-.5.5q-.25.25-.625.375T16.5 28H8v-.5q0-.5.5-.5t.5-.5.5-.5.5-.5.5-.5h5q.5 0 .5-.5t.5-.5.5-.5.5-.5.5-.5.5-.5h2q.5 0 .5-.5t.5-.5.5-.5.5-.5.5-.5.5-.5.5-.5.5-.5.5-.5.5-.5.5-.5.5-.5.5-.5" fill="#5541b1"/></svg>

<?xml version="1.0" encoding="UTF-8" standalone="no"?>
<!-- Created with Inkscape (http://www.inkscape.org/) -->

<svg
   xmlns:dc="http://purl.org/dc/elements/1.1/"
   xmlns:cc="http://creativecommons.org/ns#"
   xmlns:rdf="http://www.w3.org/1999/02/22-rdf-syntax-ns#"
   xmlns:svg="http://www.w3.org/2000/svg"
   xmlns="http://www.w3.org/2000/svg"
   xmlns:sodipodi="http://sodipodi.sourceforge.net/DTD/sodipodi-0.dtd"
   xmlns:inkscape="http://www.inkscape.org/namespaces/inkscape"
   version="1.1"
   id="svg10340"
   width="32"
   height="32"
   viewBox="0 0 32 32"
   sodipodi:docname="spore-pod.svg"
   inkscape:version="0.92.5 (2060ec1f9f, 2020-04-08)">
  <metadata
     id="metadata10346">
    <rdf:RDF>
      <cc:Work
         rdf:about="">
        <dc:format>image/svg+xml</dc:format>
        <dc:type
           rdf:resource="http://purl.org/dc/dcmitype/StillImage" />
        <dc:title></dc:title>
      </cc:Work>
    </rdf:RDF>
  </metadata>
  <defs
     id="defs10344" />
  <sodipodi:namedview
     pagecolor="#ffffff"
     bordercolor="#666666"
     borderopacity="1"
     objecttolerance="10"
     gridtolerance="10"
     guidetolerance="10"
     inkscape:pageopacity="0"
     inkscape:pageshadow="2"
     inkscape:window-width="1366"
     inkscape:window-height="705"
     id="namedview10342"
     showgrid="false"
     inkscape:zoom="7.375"
     inkscape:cx="16"
     inkscape:cy="16"
     inkscape:window-x="-8"
     inkscape:window-y="-8"
     inkscape:window-maximized="1"
     inkscape:current-layer="svg10340" />
  <g
     id="g10903">
    <path
       style="fill:#000000;fill-opacity:0"
       d="M 0,0.5 V 0 H 0.5 1 1.5 2 2.5 3 3.5 4 4.5 5 5.5 6 6.5 7 7.5 8 8.5 9 9.5 10 10.5 11 11.5 12 12.5 13 13.5 14 14.5 15 15.5 16 16.5 17 17.5 18 18.5 19 19.5 20 20.5 21 21.5 22 22.5 23 23.5 24 24.5 25 25.5 26 26.5 27 27.5 28 28.5 29 29.5 30 30.5 31 31.5 32 V 0.5 1 1.5 2 2.5 3 3.5 4 4.5 5 5.5 6 6.5 7 7.5 8 8.5 9 9.5 10 10.5 11 11.5 12 12.5 13 13.5 14 14.5 15 15.5 16 16.5 17 17.5 18 18.5 19 19.5 20 20.5 21 21.5 22 22.5 23 23.5 24 24.5 25 25.5 26 26.5 27 27.5 28 28.5 29 29.5 30 30.5 31 31.5 32 H 31.5 31 30.5 30 29.5 29 28.5 28 27.5 27 26.5 26 25.5 25 24.5 24 23.5 23 22.5 22 21.5 21 20.5 20 19.5 19 18.5 18 17.5 17 16.5 16 15.5 15 14.5 14 13.5 13 12.5 12 11.5 11 10.5 10 9.5 9 8.5 8 7.5 7 6.5 6 5.5 5 4.5 4 3.5 3 2.5 2 1.5 1 0.5 0 V 31.5 31 30.5 30 29.5 29 28.5 28 27.5 27 26.5 26 25.5 25 24.5 24 23.5 23 22.5 22 21.5 21 20.5 20 19.5 19 18.5 18 17.5 17 16.5 16 15.5 15 14.5 14 13.5 13 12.5 12 11.5 11 10.5 10 9.5 9 8.5 8 7.5 7 6.5 6 5.5 5 4.5 4 3.5 3 2.5 2 1.5 1 0.5 M 16.5,28 Q 17,28 17.375,27.875 17.75,27.75 18,27.5 18.25,27.25 18.5,27 18.75,26.75 19,26.5 19.25,26.25 19.5,26 19.75,25.75 20,25.5 20.25,25.25 20.625,25.125 21,25 21.5,25 22,25 22.375,24.875 22.75,24.75 23,24.5 23.25,24.25 23.5,24 23.75,23.75 24,23.5 24.25,23.25 24.5,23 24.75,22.75 25,22.5 25.25,22.25 25.5,22 25.75,21.75 26,21.5 26.25,21.25 26.5,21 26.75,20.75 27,20.5 27.25,20.25 27.5,20 27.75,19.75 27.875,19.375 28,19 28,18.5 q 0,-0.5 0,-1 0,-0.5 0,-1 0,-0.5 0,-1 V 15 14.5 q 0,-0.5 0,-1 0,-0.5 0,-1 Q 28,12 27.875,11.625 27.75,11.25 27.5,11 27.25,10.75 27,10.5 26.75,10.25 26.375,10.125 26,10 25.875,9.625 25.75,9.25 25.5,9 25.25,8.75 25,8.5 24.75,8.25 24.5,8 24.25,7.75 24,7.5 23.75,7.25 23.5,7 23.25,6.75 23,6.5 22.75,6.25 22.5,6 22.25,5.75 22,5.5 21.75,5.25 21.5,5 21.25,4.75 21,4.5 20.75,4.25 20.375,4.125 20,4 19.5,4 19,4 18.5,4 18,4 17.5,4 17,4 16.5,4 16,4 15.5,4 15,4 14.5,4 14,4 13.5,4 13,4 12.625,4.125 12.25,4.25 12,4.5 11.75,4.75 11.5,5 11.25,5.25 11,5.5 10.75,5.75 10.5,6 10.25,6.25 10,6.5 9.75,6.75 9.5,7 9.25,7.25 9,7.5 8.75,7.75 8.5,8 8.25,8.25 8.125,8.625 8,9 8,9.5 q 0,0.5 0,1 0,0.5 0,1 0,0.5 0,1 0,0.5 0,1 0,0.5 0,1 0,0.5 0,1 Q 8,16 7.875,16.375 7.75,16.75 7.5,17 7.25,17.25 7,17.5 6.75,17.75 6.5,18 6.25,18.25 6,18.5 5.75,18.75 5.5,19 5.25,19.25 5,19.5 4.75,19.75 4.5,20 4.25,20.25 4.125,20.625 4,21 4,21.5 q 0,0.5 0,1 0,0.5 0,1 0,0.5 0,1 0,0.5 0,1 0,0.5 0,1 0,0.5 0.125,0.875 0.125,0.375 0.5,0.5 Q 5,28 5.5,28 q 0.5,0 1,0 0.5,0 1,0 H 8 8.5 q 0.5,0 1,0 0.5,0 1,0 0.5,0 1,0 0.5,0 1,0 0.5,0 1,0 0.5,0 1,0 0.5,0 1,0 0.5,0 1,0"
       id="path10893"
       inkscape:connector-curvature="0" />
    <path
       style="fill:#9e78dc;fill-opacity:1"
       d="M 12,4.5 Q 12.25,4.25 12.625,4.125 13,4 13.5,4 q 0.5,0 1,0 0.5,0 1,0 0.5,0 1,0 0.5,0 1,0 0.5,0 1,0 0.5,0 1,0 Q 20,4 20.375,4.125 20.75,4.25 21,4.5 21.25,4.75 21.5,5 21.75,5.25 22,5.5 22.25,5.75 22.5,6 22.75,6.25 23,6.5 23.25,6.75 23.5,7 23.75,7.25 24,7.5 24.25,7.75 24.5,8 24.75,8.25 25,8.5 25.25,8.75 25.5,9 25.75,9.25 25.875,9.625 L 26,10 25.90625,9.71875 25.8125,9.4375 25.875,9.625 q 0.0625,0.1875 0.1875,0.3125 l 0.125,0.125 L 26.125,10 26.0625,9.9375 25.65625,10.09375 Q 25.25,10.25 25,10.5 24.75,10.75 24.5,11 24.25,11.25 24,11.5 23.75,11.75 23.5,12 23.25,12.25 23,12.5 22.75,12.75 22.5,13 22.25,13.25 22,13.5 21.75,13.75 21.5,14 21.25,14.25 21,14.5 20.75,14.75 20.5,15 20.25,15.25 20,15.5 19.75,15.75 19.5,16 19.25,16.25 19,16.5 18.75,16.75 18.5,17 18.25,17.25 18,17.5 17.75,17.75 17.5,18 17.25,18.25 17,18.5 16.75,18.75 16.5,19 16.25,19.25 16,19.5 15.75,19.75 15.5,20 15.25,20.25 15,20.5 14.75,20.75 14.5,21 14.25,21.25 14,21.5 13.75,21.75 13.5,22 13.25,22.25 13,22.5 12.75,22.75 12.375,22.875 12,23 11.5,23 11,23 10.5,23 10,23 9.625,23.125 9.25,23.25 9,23.5 8.75,23.75 8.5,24 8.25,24.25 8,24.5 7.75,24.75 7.5,25 7.25,25.25 7,25.5 6.75,25.75 6.375,25.875 6,26 5.5,26 5,26 4.5,26 H 4 V 25.5 Q 4,25 4,24.5 4,24 4,23.5 4,23 4,22.5 4,22 4,21.5 4,21 4.125,20.625 4.25,20.25 4.5,20 4.75,19.75 5,19.5 5.25,19.25 5.5,19 5.75,18.75 6,18.5 6.25,18.25 6.5,18 6.75,17.75 7,17.5 7.25,17.25 7.5,17 7.75,16.75 7.875,16.375 8,16 8,15.5 8,15 8,14.5 8,14 8,13.5 8,13 8,12.5 8,12 8,11.5 8,11 8,10.5 8,10 8,9.5 8,9 8.125,8.625 8.25,8.25 8.5,8 8.75,7.75 9,7.5 9.25,7.25 9.5,7 9.75,6.75 10,6.5 10.25,6.25 10.5,6 10.75,5.75 11,5.5 11.25,5.25 11.5,5 11.75,4.75 12,4.5 M 4,25.625 V 26 26.125 26.25 26 q 0,-0.25 0,-0.5 v -0.25 0.375 m 9.625,-9.75 Q 14,16 14.375,15.875 14.75,15.75 15,15.5 15.25,15.25 15.5,15 15.75,14.75 16,14.5 16.25,14.25 16.5,14 16.75,13.75 17,13.5 17.25,13.25 17.5,13 17.75,12.75 18,12.5 18.25,12.25 18.5,12 18.75,11.75 19,11.5 19.25,11.25 19.5,11 19.75,10.75 19.875,10.375 20,10 19.875,9.625 19.75,9.25 19.5,9 19.25,8.75 19,8.5 18.75,8.25 18.375,8.125 18,8 17.625,8.125 17.25,8.25 17,8.5 16.75,8.75 16.5,9 16.25,9.25 16,9.5 15.75,9.75 15.5,10 15.25,10.25 15,10.5 14.75,10.75 14.5,11 14.25,11.25 14,11.5 13.75,11.75 13.5,12 13.25,12.25 13,12.5 12.75,12.75 12.5,13 12.25,13.25 12.125,13.625 12,14 12.125,14.375 12.25,14.75 12.5,15 q 0.25,0.25 0.5,0.5 0.25,0.25 0.625,0.375"
       id="path10895"
       inkscape:connector-curvature="0" />
    <path
       style="fill:#7457ce;fill-opacity:1"
       d="M 17,8.5 Q 17.25,8.25 17.625,8.125 18,8 18.375,8.125 18.75,8.25 19,8.5 19.25,8.75 19.5,9 19.75,9.25 19.875,9.625 20,10 19.875,10.375 19.75,10.75 19.5,11 19.25,11.25 19,11.5 18.75,11.75 18.5,12 18.25,12.25 18,12.5 17.75,12.75 17.5,13 17.25,13.25 17,13.5 16.75,13.75 16.5,14 16.25,14.25 16,14.5 15.75,14.75 15.5,15 15.25,15.25 15,15.5 14.75,15.75 14.375,15.875 14,16 13.625,15.875 13.25,15.75 13,15.5 12.75,15.25 12.5,15 12.25,14.75 12.125,14.375 12,14 12.125,13.625 12.25,13.25 12.5,13 12.75,12.75 13,12.5 13.25,12.25 13.5,12 13.75,11.75 14,11.5 14.25,11.25 14.5,11 14.75,10.75 15,10.5 15.25,10.25 15.5,10 15.75,9.75 16,9.5 16.25,9.25 16.5,9 16.75,8.75 17,8.5"
       id="path10897"
       inkscape:connector-curvature="0" />
    <path
       style="fill:#7457ce;fill-opacity:1"
       d="m 25,10.5 q 0.25,-0.25 0.65625,-0.40625 L 26.0625,9.9375 26,9.875 25.9375,9.8125 l 0.125,0.125 q 0.125,0.125 0.3125,0.1875 L 26.5625,10.1875 26.28125,10.09375 26,10 26.375,10.125 Q 26.75,10.25 27,10.5 q 0.25,0.25 0.5,0.5 0.25,0.25 0.375,0.625 Q 28,12 28,12.5 q 0,0.5 0,1 0,0.5 0,1 V 15 H 27.5 Q 27,15 27,15.5 27,16 26.5,16 26,16 26,16.5 26,17 25.5,17 25,17 25,17.5 25,18 24.5,18 24,18 24,18.5 24,19 23.5,19 23,19 23,19.5 23,20 22.5,20 22,20 22,20.5 22,21 21.5,21 21,21 21,21.5 21,22 20.5,22 20,22 19.5,22 19,22 18.5,22 18,22 18,22.5 18,23 17.5,23 17,23 17,23.5 17,24 16.5,24 16,24 16,24.5 16,25 15.5,25 q -0.5,0 -1,0 -0.5,0 -1,0 -0.5,0 -1,0 -0.5,0 -1,0 -0.5,0 -1,0 Q 10,25 10,25.5 10,26 9.5,26 9,26 9,26.5 9,27 8.5,27 8,27 8,27.5 V 28 H 7.5 Q 7,28 6.5,28 6,28 5.5,28 5,28 4.625,27.875 4.25,27.75 4.125,27.375 4,27 4,26.5 V 26 H 4.5 Q 5,26 5.5,26 6,26 6.375,25.875 6.75,25.75 7,25.5 7.25,25.25 7.5,25 7.75,24.75 8,24.5 8.25,24.25 8.5,24 8.75,23.75 9,23.5 9.25,23.25 9.625,23.125 10,23 10.5,23 q 0.5,0 1,0 0.5,0 0.875,-0.125 Q 12.75,22.75 13,22.5 13.25,22.25 13.5,22 13.75,21.75 14,21.5 14.25,21.25 14.5,21 14.75,20.75 15,20.5 15.25,20.25 15.5,20 15.75,19.75 16,19.5 16.25,19.25 16.5,19 16.75,18.75 17,18.5 17.25,18.25 17.5,18 17.75,17.75 18,17.5 18.25,17.25 18.5,17 18.75,16.75 19,16.5 19.25,16.25 19.5,16 19.75,15.75 20,15.5 20.25,15.25 20.5,15 20.75,14.75 21,14.5 21.25,14.25 21.5,14 21.75,13.75 22,13.5 22.25,13.25 22.5,13 22.75,12.75 23,12.5 23.25,12.25 23.5,12 23.75,11.75 24,11.5 24.25,11.25 24.5,11 24.75,10.75 25,10.5 M 4,25.875 V 26 26.375 26.75 26.5 Q 4,26.25 4,26 v -0.25 0.125"
       id="path10899"
       inkscape:connector-curvature="0" />
    <path
       style="fill:#5541b1;fill-opacity:1"
       d="M 27,15.5 Q 27,15 27.5,15 H 28 v 0.5 q 0,0.5 0,1 0,0.5 0,1 0,0.5 0,1 0,0.5 -0.125,0.875 Q 27.75,19.75 27.5,20 27.25,20.25 27,20.5 26.75,20.75 26.5,21 26.25,21.25 26,21.5 25.75,21.75 25.5,22 25.25,22.25 25,22.5 24.75,22.75 24.5,23 24.25,23.25 24,23.5 23.75,23.75 23.5,24 23.25,24.25 23,24.5 22.75,24.75 22.375,24.875 22,25 21.5,25 21,25 20.625,25.125 20.25,25.25 20,25.5 19.75,25.75 19.5,26 19.25,26.25 19,26.5 18.75,26.75 18.5,27 18.25,27.25 18,27.5 17.75,27.75 17.375,27.875 17,28 16.5,28 q -0.5,0 -1,0 -0.5,0 -1,0 -0.5,0 -1,0 -0.5,0 -1,0 -0.5,0 -1,0 -0.5,0 -1,0 -0.5,0 -1,0 -0.5,0 -1,0 H 8 V 27.5 Q 8,27 8.5,27 9,27 9,26.5 9,26 9.5,26 10,26 10,25.5 10,25 10.5,25 q 0.5,0 1,0 0.5,0 1,0 0.5,0 1,0 0.5,0 1,0 0.5,0 1,0 Q 16,25 16,24.5 16,24 16.5,24 17,24 17,23.5 17,23 17.5,23 18,23 18,22.5 18,22 18.5,22 q 0.5,0 1,0 0.5,0 1,0 Q 21,22 21,21.5 21,21 21.5,21 22,21 22,20.5 22,20 22.5,20 23,20 23,19.5 23,19 23.5,19 24,19 24,18.5 24,18 24.5,18 25,18 25,17.5 25,17 25.5,17 26,17 26,16.5 26,16 26.5,16 27,16 27,15.5"
       id="path10901"
       inkscape:connector-curvature="0" />
  </g>
</svg>
